X: 10890
T: Drowsy Dragon
R: jig
M: 6/8
K: Eminor
|:GBG[^A2e2][Ae]|GBG[^A2e2][Ae]|dBG^C2E|DEFB2A|
GBG[^A2e2][Ae]|GBG[^A2e2][Ae]|dBG ABA|G2 B2<G2:|
|:Ace ^dec|BGD BGD|Ace ^dec|B3B3|
Ace ^dec|BGD BGD|EFG F2D|E6:|

